#title "おきのどくですが ぼうけんのしょ は きえてしまいました"
#bsave-name "okinodok"
#timebase 24
1 o2 s10 m+
2 o1 @6 v10
12 l16
1 b>b<b->b-<m\0
1 b>b<b->b-<m\-1
1 b>b<b->b-<m\1
1 b>b<b->b-<m\2
2 [b>b<b->b-<]4
12 >e4f+32f32<b-8.
