#TITLE "淋しい熱帯魚 PSG Cover (H.ENV)"
#MEMO "Wink 1989年7月5日 作詞：及川眠子"
#COMPOSER "	尾関昌也"
#ARRANGER "	船山基紀"
#MEMO "非対応：CASIO MX-101、MSX0"

#BSAVE-NAME "SAMISIIH"
#PROGRAMMER "Uniskie"

;#TEMPO 122
#TIME-BASE 28 ;L16=%7 L16まで端数が出ない指定
#REPEAT-MODE 1 ;チェック付きリピートブロック圧縮

#JUMP-OFFSET -1800

;*****************************************
; テスト用無限ループ
;*****************************************
$mugenLoop = ;@l r2

;*****************************************
;ベース音色
;*****************************************
;$baseVoice = @6 q4 @r11,9 @rd- @m- \-1 ; 矩形波ベース
$baseVoice = s14,1 q6 m+ \9 @r- @m-    ; H.ENV 三角波ベース
;$baseVoice = s14,3 q6 m+ \9 @r- @m-    ; H.ENV 三角波ベース

 ; TIME-BASE 28: L16=%7

;*****************************************
;ドラムチャンネル
;*****************************************
$cdef = @c3 
;ドラムチャンネル途中切替
; ※ 切替自体はあまり関係ない
; ※ Sコマンド第2パラメータで指定するH.ENVの音量減衰タイミングがかぶるとドラムが途切れる
$c2 = @c2 ; ** 切り替えない場合は@cをコメントアウトする。 ** こちらだけ有効にすると常時Ch.2へ割り込む
$c3 = @c3 ; ** 切り替えない場合は@cをコメントアウトする。  ** こちらだけ有効にすると常時Ch.3へ割り込む

;音色定義
@R:B = *3 V15 :960 N0 / *1 :1480 V13 /  :2200 V12 ;/ :3080 V11 ;/ V10 / V9
@R:S = *3 V15 :520 N2 / *2 N1 V13 / *1 :670 V12
@R:H = *3 V11 :20  N0 
@R:O = *3 V9  :20  N0 / V9
@R:C = *3 V11 :21  N1 / V10 / v9
@R:K = *3 V14 :450 N4 / *1 :500 V13 / :550  V12 / :650  V11 
@R:M = *3 V14 :500 N6 / *1 :630 V13 / :760  V12 / :860  V11 
@R:N = *3 V14 :720 N8 / *1 :870 V13 / :1020 V12 / :1220 V11 
@R:U = *3 V13 :320 N4 / *1 :360 V12 / :404  V11 / :453  V10 

@0=FD:2 C:2 B:3 L A:3 B:2 C:2 B:2
@1=BFED:2 C:2 DC:3 L B:3 A:4 B:3 C:2 
@2=FD:2 C:3 B:4 A:5 9:6 8:7 7:8 6:8 5:8 4:8 3:8 2:8 1:8 L0
@3=FC:2 B:2 CB:2 A:2 L 9:3 A:2 B:2 A:2 
@6=FDC B:4 L A:3 9:4 8:5 9:4

;ビブラート
;   Delay,Interval,Depth,Type(,AddDepth)(,AddCount)(,LoopMode)
@m0=42,3,2,0
@m1=38,3,1,2,1,3

;ノートエンベロープ
@n0=0 -1 -2 -3 -4 -5 -6 -7 -8 -9 -10 -11 -12
@n1= -1 0  0 
;@n3= -3 0  0 
@n4= -4 0  0 
@n5= -5 0  0 
@n6= -6 0  0 
@n7= -7 0  0 
@n8= -8 0  0 
@n9= -9 0  0 
@n12=0 12 0 
@n15=[2 7 0 ]

;ドラム切り替えマクロ
$drmOn  = @2@n0
$drmOff = @n-

;*****************************************
; 動作検証テスト用
;*****************************************
;音色設定マクロ
$mainVoice0 = @0 @r12,14
$mainVoice1 = @1 @r12,14
$mainVoice3 = @3 @r11,14

$subVoice0  = @0 @r12,14
$subVoice1  = @1 @r12,14
$subVoice3  = @3 @r11,14

123r $mugenLoop:

; ***** イントロ *****

; ** VOLUME **
123 o5v12 \ @r- @m- q8@q0
r   v14 l16 $cdef: $c2:

123 @rd1,18 @m0 
123 $subVoice3:

1 j="I1"
1  l16 aggrg8.r
2  l16 eddrd8.r
3  l16 c<bbrb8.>r
r  r2

1  a8r8a8ra8ggrg8.r a8a8a8aa8ggrg8.r
2  e8r8e8re8ddrd8.r e8e8e8ee8ddrd8.r
3  c8r8c8rc8<bbrb8.>r c8c8c8cc8<bbrb8.>r
r  r1 r1

1 j="I2"
1  $mainVoice3:v+2
1  [q5<a8>e8d8e8<a8>q8edrde/r]4 ;a&
23 $subVoice3:
;2  [c8r8c8rc8<bbrb8.>r c8c8c8cc8<bbrb8.>r]2 c
2  [a8r8a8ra8 ggrg8. r a8a8a8aa8 ggrg8. r]2
;2  [a8r8a8ra8ggrg8.r a8a8a8a/a8ggrg8.r]2 a
;2    $c2:v+1$drmOn: <<g8g8e16c8.>> $drmOff:v-1 $subVoice1:
;3  [a8r8a8ra8ggrg8.r a8a8a8aa8ggrg8.r]2
;3  [c8r8c8rc8<bbrb8.>r c8c8c8cc8<bbrb8.>r]2
3  $baseVoice:q8@q1
3  $c2:v+2 <<<a2e2 f2g2 a2e2 f2g2>>> v-2 
;3  $c3:v+2 <<<a2e2 f2g2 a2e2 f2 $c2:v-2 @q0
;3       v+2$drmOn: >g8g8e16c8.>> $drmOff:v-2 $subVoice1:
r  b4b4b4b4   b4b4b4b4
r  b8hhb8h8b4b8u8 b8u8b4k8k8mn8.

1 j="I3"
1  $mainVoice0:\ v-3 @m1
1  a& v+1
1  a4.r8r4r8.<a>& e4.r8r2v+2
2  $subVoice0:\ v-1 @m1
2  <a4.r8r2  a4.>r8v+1;.r4
2  @m- v+2$drmOn: <<e16e16e8e8e16e16>> $drmOff:v-2
3  $subVoice0: \1 >> v-2 @m1
3  <<e4<
3  $subVoice3: \1 @q1@m-
3    v+1<a>de<a8a>de<a8r8 v-2a>de<a8v-1a>de<a8v-1a>de<a8>>rv+3 \0@q0
r  b4b4b8hhb8h8 bhh8b4sss8s8ss

; ***** 1番 ～ 2番の途中まで1.5ループ *****

1 j1

;123r @l ;1番だけ永久ループ

123r [

123 @rd1,18 @m0 
; ** VOLUME **
1  v14 o4
2  v11 o5
3  v15 o2
r  v15 $cdef: $c2:

1 j="M1"
1 $mainVoice3: 
1 >
1 l16 [[q6<a8>e8d8e8d8.q8c/rcdc] c4
1       q6<a8>e8d8e8d8.q8c<rab>c q6f8g8e8c8d8.q8er4]
1 <
2 $subVoice0:
2 l16 $c3:
2 <@n12[[a8.rr2raaa a8.rr4/ r4ra8a]
2                           a8.rr4]$c2:@n- >
3 $baseVoice:
3 l8
3 [[a>a<]4 [g>g<]4 [f>f<]4 [d>d<]2[e>e<]2]
r [b8h8m8h8 / b8hhm8h8]8 bhm8.m16m16m16

1 j="M2"
1 $mainVoice1:
1 l8 e4   v-1\2d+16&e8.\0v+1reed& dcce-16e16ed4c& c4c<a>cd4e& e4.f16e16d4rd8
1 d+16&e8.v-1\2d+16&e8.\0v+1reed& dg4a4g4r d4ded4<gb& b>c16&<b16&a4.>r4.
2 $subVoice3:
2 l16 
2 [q5<a8>e8d8e8<a8>q8edrder]7
2  q5<a8>e8d8c8<a8>q8edrder
3 [[a>a<]4[g>g<]4 / [f>f<]4[g>g<]4]
3                   [d>d<]2 [e>e<]2 [a>a<]4
r [[[b8h8m8h8 / b8h8m8h8]2 / b8hh mhh8 ]
r                          / b8b8 mv-nnnv+ ]
r                            b8bb mmv-nnv+

1 j2
1 j="M3"
1 [v+1r4agr4ag rv-1abe4g4./r4agab4-%2&b+%1&g%1e& eg4ed4r4]
1                          r4agab4b-& v+1b2-%2&b+%1a%1&f+%1&v-1e2-%1
2 l8
2 $subVoice0:
2   r4     edr4ed r4.$c3:e<gab>c<   a4 $c2:r2. r4.$c3:>e<b>c<bg>
2 q6e4q$c2:edr4ed r4.$c3:e<gab>c  q6e4q$c2:r2. r2$c3:v+1<g+l16eedeg8>v-1$c2:
3 [[f>f<]4 [g>g<]4 [f>f<]4 / [e>e<]4 ]2
3                            [g>g<]2 [e>e<]2
r [[b8h8m8h8 b8h8m8hh / b8o8m8h8 b8b8mv-mv-mv-mv+3]
r                     / b8o8m8h8 b8m8h8nv-nv+]
r                       b8m8v-m8v+h8 b8m8rmmm

1 j3
1 j="M4"
;1 @n5aa4a&a2 r1 @n6gg4@n5a4@n6g4. r1@n-
1 aa4a&a2 r1 gg4a4g4. r1
;1 @n5f4f@n-cf@n4g4g& g2@n5g+2@n-
1 f4fcfg4g& g2g+2
2 $subVoice0:l8q5aece<a>q8 l16 edr8$subVoice3:$c3:>cd eredrdcrl8<q5bbq8ar$c2:
2 $subVoice0:  q5gd<b>e<gq8l16>dcr8$subVoice3:$c3:b>c drdcrc<brl8q5aaq8gr$c2:
2 @n4[rf]4@n- rede<b>$c2:l16edrderl8$c3:
3 [a>a<]8 [g>g<]8 
3 [f>f<]4 [g>g<]2[a->a-<]2
;r [b8o8m8h8 b8o8m8hh bho8m8h8 b8o8m8bb] ; 割り込みがひずみやすい
r [b8o8m8h8 b8o8m8h8 b8o8m8h8 b8o8m8bb]
r  b8o8m8h8 b8o8m8h8 bho8m8hh b8m8m16m16n16n16

1 j="M5-1"; (2番で分岐)
;1 @n6aaaa&a2 gg4a4g4. @n4f4f@n8a@n4ggg@n6;a& ;a4r4;a4>c4 
1 aaaa&a2 gg4a4g4. f4faggg;a& ;a4r4;a4>c4 
                          ;a&でループを抜けるとそれ以後ずっとスラーが続くので対策
2 $subVoice1:l16[r2r8edrder]2
2 $c3:l8q5<f>ede<e>q8$subVoice3:l16dcrcdr ;l8q5redeq8;r<a>rc
3 [a>a<]4 [g>g<]4 [d>d<]2 [e>e<]2 ;[a>a<]2;[a>a<]2
r [b8o8m8h8 b8h8m8h8 / b8o8m8h8 b8h8m8mm];b8o8m8h8;b4m8b8 

123r / ;1番 と 2番の分岐 
1 j4
1 j="M5-2"; (1番ルート）
1 a&  ;a&でループを抜けるとそれ以後ずっとスラーが続くので対策
1 a4@n-r4
2 l8q5redeq8$c2:
3 [a>a<]2
r b8o8m8h8

1 a4>c4< 
2 $subVoice1: \2
2 r$c3:<a>$c2:r$c3:c$c2:\0
3 [a>a<]2
r b4m8b8 

1 j="M6"
1 >[dddcd4e4]
1  dddcdc4c& c1<
2 $subVoice1:
2 @n4<[fffef4g4]
2      fffefe4e @n- $subVoice3:$c3:l16>ec<ae >c<aec aec<a >ec<af>>l8$c2:
3 [f>f<]2[g>g<]2 [d>d<]2[e>e<]2
3 [f>f<]2[g>g<]2 [a>a<]2 b>bc>c<<
r [b8h8m8h8 b8o8m8h8 bho8m8h8 / b8o8m8b8] b8o8k16mn8

1 j5
1 j="M7"
1 $mainVoice0:
;1  [[a8v-1a16v+1r16r4/v-4\2]v+4\0]
1  [[@n1a8v-1a16@n-v+1r16/v-2\2]4 v+6\0]
2  $subVoice3:\1@m1v-2a4.r8r4r8.<a16>& e4.r8v+2\0@m0 ;r2
;2  $subVoice0:
;2 \1<v+1
;2  [r4a8v-1a16v+1r16/v-3\3]v+3\1
;2   r4a8v-1a16v+1r16
;2 \0>v-1
2   v+2$drmOn:<<l16gec8gecc>>$drmOff:v-2
3 [a>a<]8
r $c3:[b8h8m8h8]3 kmn8kmnn$c2

123r ]

; ***** 最後 （2番の途中から派生：様々なパートの組み換え） *****

1 j="M5-3" ; （2番ルート）

1 $mainVoice1:
1 a&  ;a&でループを抜けるとそれ以後ずっとスラーが続くので対策
1 a2@n-r2
2 l8[q5redeq8v-1]v+2 $c2:
3 [a>a<]4
r b8o8m8h8 b4m8b8 

1 j="E1"
1 $mainVoice3:
1 l8
;1 @n5<arr2>@n7e<@n4b r2.>@n3d<@n5a> r2.@n7ee& e4d4<@n9b4@n8g4
1 <arr2>e<b r2.>d<a> r2.ee& e4d4<b4g4
; <err2 a g r2. b e  r2.aa& a4g4 d4<b4
;1 >@n5err2<@n9a>@n5e r2.@n7d<a> r4@n3c<@n7b>r4@n5e<a> r1@n-
1 >err2<a>e r2.d<a> r4c<b>r4e<a> r1
;  arr2 c b r2.g d  r4a e r4b e r1
2 $subVoice3:
2 l16
2 [q5<a8>e8d8e8<a8>q8edrder]4
2 [q5<a8>q8eedeer q5 / <g8a8g8a8>] <g8g8g8g8>
2  q5<a8>e8d8e8<a8>q8edrder
2  q5<a8>q8eede<ar $c3:q5g8q8agrgar>$c2:
3 $baseVoice:
3 l8
3 [a>a<]4 [g>g<]4 [f>f<]4 [g>g<]4
3 [a>a<]4 [g>g<]4 [d>d<]2[e>e<]2 [a>a<]4
r [b8h8m8h8 / b8hhm8h8]8 bhm8.m16m16m16

1 j="M3e"; (終わりが違う)
1 $mainVoice1: \0
1 l8
1 [r4agr4ag rabe4g4. / r4agab4-%2&b+%1&g%1e& eg4ed4r4]
1                      r4agab4-%2&b-%1&f+%1e& eg4r
2 l8
2 $subVoice0: \0
2 r4       [edr4ed r4.$c3:e<gab>c<$c2: a4r2. r4./$c3:>e<b>c<bg>
2 q6e4q$c2:] 
2                                          r
3 [[f>f<]4 [g>g<]4 [f>f<]4 / [e>e<]4 ]2
3                            [e>e<]2
r [[b8h8m8h8 b8h8m8hh / b8o8m8h8 b8b8mv-mv-mv-mv+3]
r                       b8o8m8h8 /b8m8h8nv-nv+]

1 j="M6e"
1 a4>c4 
;2 $subVoice1:
;2 r<a>rc
2 v+2$drmOn: <l16eeeee8e8> $drmOff:v-2
3 [a>a<]2
r mmmmm8m8 

1 [dddcd4e4]
1  dddcdc4c& c1<
2 $subVoice1: 
2 l8 @n4
2 [fffef4g4]
2  fffefe4e @n- $c3:l16>ec<ae >c<aec aec<a >ec<af>>l8$c2:
3 [f>f<]2[g>g<]2 [d>d<]2[e>e<]2
3 [f>f<]2[g>g<]2 [a>a<]2 b>bc>c<<
r [b8h8m8h8 b8o8m8h8 bho8m8h8 / b8o8m8b8] b8o8k16mn8

1 j="M7e"
1 $mainVoice0:
;1  [[a8v-1a16v+1r16r4/v-4\2]v+4\0]
1  [[@n1a8v-1a16@n-v+1r16/v-2\2]4 v+6\0]
2  $subVoice3:\1@m1v-2a4.r8r4r8.<a16>& e4.r8v+2\0@m0 ;r2
;2  $subVoice0:
;2 \1<v+1
;2  [r4a8v-1a16v+1r16/v-3\3]v+3\1
;2   r4a8v-1a16v+1r16
;2 \0>v-1
2   v+2$drmOn:<<l16gec8gecc>>$drmOff:v-2
3 [a>a<]8
r $c3:[b8h8m8h8]3 kmn8kmnn$c2:

123r [

1 j="M4e"
1 $mainVoice1: \0
1 ;@n5aa4a&a2 r1 @n6gg4@n5a4@n6g4. r1@n-
1 aa4a&a2 r1 gg4a4g4. r1
1 ;@n5f4f@n-cf@n4g4g& g2@n5g+2@n-
1 f4fcfg4g& g2g+2
2 $subVoice0:l8q5aece<a>q8 l16 edr8$subVoice3:$c3:>cd eredrdcrl8<q5bbq8ar$c2:
2 $subVoice0:  q5gd<b>e<gq8l16>dcr8$subVoice3:$c3:b>c drdcrc<brl8q5aaq8gr$c2:
2 @n4[rf]4@n- rede<b>$c3:l16edrderl8$c2:
3 [a>a<]8 [g>g<]8 
3 [f>f<]4 [g>g<]2[a->a-<]2
;r [b8o8m8h8 b8o8m8hh bho8m8h8 b8o8m8bb]
r [b8o8m8h8 b8o8m8h8 b8o8m8h8 b8o8m8bb]
r  b8o8m8h8 b8o8m8h8 bho8m8hh b8m8m16m16n16n16

1 j="M5-1e"
;1 @n6aaaa&a2 gg4a4g4. @n4f4f@n8a@n4ggg@n6;a& ;a4r4;a4>c4 
1 aaaa&a2 gg4a4g4. f4faggg;a& ;a4r4;a4>c4 
                          ;a&でループを抜けるとそれ以後ずっとスラーが続くので対策
2 $subVoice1:l16[r2r8edrder]2
2 $c3:l8q5<f>ede<e>q8$subVoice3:l16dcrcd;r ;l8q5redeq8;r<a>rc
3 [a>a<]4 [g>g<]4 [d>d<]2 ;[e>e<]2 ;[a>a<]2;[a>a<]2
r [b8o8m8h8 b8h8m8h8 / b8o8m8h8 b8h8m8mm]; b8o8m8h8 b4m8b8 

123r /

1 j="M5-2e"
1 a&  ;a&でループを抜けるとそれ以後ずっとスラーが続くので対策
1 a4.@n-r;r2
1 $mainVoice3:
1   v-4<a8a8a8a>v+4
2 $c2:r ; 頭合わせ
2 $subVoice3:
2 l8r$c3:q5@n4eeeq8 f%4&f+8-%4ef%4&f+8-%4e@n-$c2:
3 [e>e<]2 ; 頭合わせ
3 [a>a<]4
r b8o8m8h8 b4m8b8 

123r ]

1 j="M5-3e"
1 a&  ;a&でループを抜けるとそれ以後ずっとスラーが続くので対策
1 a2.@n-r4
2 $c2:r ;頭合わせ
2 r2.;r4
2     @r-v+2$drmOn:<<e8e16e16>>$drmOff:v-2
3 e>e<ef& ; 頭合わせ
3 f2.r4
r b4v-8[cv+]8m8mm

1 j="M1e"
1 $mainVoice3:
1 >
1 l16 [[q6<a8>e8d8e8d8.q8c/rcdc] r4
1       q6<a8>e8d8e8d8.q8c<rab>c q6f8g8e8c8d8.q8er4]
1 <
2 $subVoice0:
2 <@n12[[$c3:a8.$c2:rr2raaa $c3:a8.$c2:rr4/ r4ra8a]
2                                      $c3:a8.$c2:rr4]@n- >
3 $baseVoice:
3 l8
3 [[a>a<]4 [g>g<]4 [f>f<]4 [d>d<]2[e>e<]2]
r [b8h8m8h8 / b8hhm8h8]8 bhm8.m16m16m16

1 j="E2"
1 $mainVoice1: @r8,12
1 l16 <@n12a8a8r2.
1       a8a8g8a8v-r2@n->
2 l16 ;v+<a8a8>v-
2     v+2$drmOn:<<e8e8>>$drmOff:v-2
2     $subVoice0$c3:d8e8<a8>edrer$c2:r
2     @r-v+2$drmOn:<<e8e8d8e8>>$drmOff:v-2r2
3 aar2. aagar2
r s8s8b4b4b4
r s8s8s8s8r2

