#title "不安になる旋律テスト"
#bsave-name "TEST-0"
#composer "uniskie"

#time-base 32

123 @l

@m0=30,3,1,0 ,5,1

1 v14 @1 @m0
1 a2.f4
1 b-2.>c4<

2 v15 @0 @r14,10 @rd1,15 q6
2 o5
2 l16
2 [abrcdc] abr<a>
2 [gar<b->c<b->] gar<b->

3 v15 @3 o2
3 l8
3 d>d<dd>d<ddd
3 c>c<cc>c<ccc

r v15 l4
r r1 r1
r r2.s brbs16r16s16s16
r @l
r [bbbs]2
